X:0846
T:The empty Purse.
M:C
L:1/8
Q:1/4=120
I: :: :|
N:initial rest added
Z:Jack Campin * www.campin.me.uk * 2009
K:A Mixolydian
e|Ae-e.g/.e/ dG B/c/d/B/|Ae-ec Aeaf|ga/g/ eg/e/ dG B/c/d/B/|Ae-e.d/.f/ eAA:|
B|Aa`ab      dG B/c/d/B/|Aa`ag Aeae|gb/g/ eg/e/ dG B/c/d/B/|Ae-e.d/.f/ eAA:|

